src/images/ico/images/nac_chart.svg

<svg xmlns="http://www.w3.org/2000/svg" viewBox="-12091 -18265 900 400">
    <defs>
        <style>
            .cls-1, .cls-8 {
            fill: #fff;
            }

            .cls-1, .cls-2 {
            stroke: #95989a;
            }

            .cls-10, .cls-2 {
            fill: none;
            }

            .cls-3, .cls-5 {
            fill: #95989a;
            }

            .cls-3, .cls-4 {
            font-size: 11px;
            }

            .cls-3, .cls-4, .cls-5, .cls-8 {
            font-family: Roboto-Regular, Roboto;
            }

            .cls-4 {
            fill: #2a3052;
            }

            .cls-5, .cls-8 {
            font-size: 12px;
            }

            .cls-6, .cls-7 {
            fill: #e98024;
            }

            .cls-7 {
            opacity: 0.6;
            }

            .cls-8 {
            letter-spacing: 0.3em;
            }

            .cls-9 {
            stroke: none;
            }
        </style>
    </defs>
    <g id="Group_458" data-name="Group 458" transform="translate(11743 -855)">
        <g id="Rectangle_184" data-name="Rectangle 184" class="cls-1" transform="translate(-23834 -17410)">
            <rect class="cls-9" width="900" height="400"/>
            <rect class="cls-10" x="0.5" y="0.5" width="899" height="399"/>
        </g>
        <g id="Group_450" data-name="Group 450">
            <line id="Line_58" data-name="Line 58" class="cls-2" x2="696.561" transform="translate(-23700 -17294.5)"/>
            <line id="Line_59" data-name="Line 59" class="cls-2" x2="696.561" transform="translate(-23700 -17184.5)"/>
            <line id="Line_60" data-name="Line 60" class="cls-2" x2="696.561" transform="translate(-23700 -17147.5)"/>
            <line id="Line_61" data-name="Line 61" class="cls-2" x2="696.561" transform="translate(-23700 -17111.5)"/>
            <line id="Line_62" data-name="Line 62" class="cls-2" x2="696.561" transform="translate(-23700 -17074.5)"/>
            <text id="_120_000" data-name="120,000" class="cls-3" transform="translate(-23724 -17292)"><tspan x="-39.349" y="0">120,000</tspan></text>
            <text id="Number_of_active_clients" data-name="Number of active clients" class="cls-4" transform="translate(-23665 -17322)"><tspan x="0" y="0">Number of active clients</tspan></text>
            <text id="_2007" data-name="2007" class="cls-3" transform="translate(-23419 -17056)"><tspan x="0" y="0">2007</tspan></text>
            <text id="_2003" data-name="2003" class="cls-3" transform="translate(-23573 -17056)"><tspan x="0" y="0">2003</tspan></text>
            <text id="_2011" data-name="2011" class="cls-3" transform="translate(-23265 -17056)"><tspan x="0" y="0">2011</tspan></text>
            <text id="_2001" data-name="2001" class="cls-3" transform="translate(-23650 -17056)"><tspan x="0" y="0">2001</tspan></text>
            <text id="_2009" data-name="2009" class="cls-3" transform="translate(-23342 -17056)"><tspan x="0" y="0">2009</tspan></text>
            <text id="_2005" data-name="2005" class="cls-3" transform="translate(-23496 -17056)"><tspan x="0" y="0">2005</tspan></text>
            <text id="_2013" data-name="2013" class="cls-3" transform="translate(-23187 -17056)"><tspan x="0" y="0">2013</tspan></text>
            <text id="_2000" data-name="2000" class="cls-3" transform="translate(-23689 -17056)"><tspan x="0" y="0">2000</tspan></text>
            <text id="_2008" data-name="2008" class="cls-3" transform="translate(-23380 -17056)"><tspan x="0" y="0">2008</tspan></text>
            <text id="_2004" data-name="2004" class="cls-3" transform="translate(-23535 -17056)"><tspan x="0" y="0">2004</tspan></text>
            <text id="_2012" data-name="2012" class="cls-3" transform="translate(-23226 -17056)"><tspan x="0" y="0">2012</tspan></text>
            <text id="_2002" data-name="2002" class="cls-3" transform="translate(-23612 -17056)"><tspan x="0" y="0">2002</tspan></text>
            <text id="_2010" data-name="2010" class="cls-3" transform="translate(-23303 -17056)"><tspan x="0" y="0">2010</tspan></text>
            <text id="_2006" data-name="2006" class="cls-3" transform="translate(-23457 -17056)"><tspan x="0" y="0">2006</tspan></text>
            <text id="_2014" data-name="2014" class="cls-3" transform="translate(-23149 -17056)"><tspan x="0" y="0">2014</tspan></text>
            <text id="_2015" data-name="2015" class="cls-3" transform="translate(-23110 -17056)"><tspan x="0" y="0">2015</tspan></text>
            <text id="_2017" data-name="2017" class="cls-3" transform="translate(-23033 -17056)"><tspan x="0" y="0">2017</tspan></text>
            <text id="_2016" data-name="2016" class="cls-3" transform="translate(-23072 -17056)"><tspan x="0" y="0">2016</tspan></text>
            <text id="_100_000" data-name="100,000" class="cls-3" transform="translate(-23724 -17255)"><tspan x="-39.354" y="0">100,000</tspan></text>
            <text id="_80_000" data-name="80,000" class="cls-3" transform="translate(-23723 -17219)"><tspan x="-33.156" y="0">80,000</tspan></text>
            <text id="_40_000" data-name="40,000" class="cls-3" transform="translate(-23723 -17145)"><tspan x="-33.156" y="0">40,000</tspan></text>
            <text id="_60_000" data-name="60,000" class="cls-3" transform="translate(-23723 -17182)"><tspan x="-33.156" y="0">60,000</tspan></text>
            <text id="_20_000" data-name="20,000" class="cls-3" transform="translate(-23723 -17109)"><tspan x="-33.156" y="0">20,000</tspan></text>
            <text id="_0" data-name="0" class="cls-5" transform="translate(-23716 -17071)"><tspan x="-6.762" y="0">0</tspan></text>
            <path id="Path_205" data-name="Path 205" class="cls-6" d="M0,0H26V13H0Z" transform="translate(-23700 -17333)"/>
            <path id="Path_212" data-name="Path 212" class="cls-6" d="M0-4.592H23v42.2H0Z" transform="translate(-23225 -17112.607)"/>
            <path id="Path_209" data-name="Path 209" class="cls-6" d="M0-4.523H23v26.5H0Z" transform="translate(-23341 -17096.977)"/>
            <path id="Path_207" data-name="Path 207" class="cls-6" d="M0,4.7H23V23.227H0Z" transform="translate(-23417 -17098.227)"/>
            <path id="Path_213" data-name="Path 213" class="cls-6" d="M0-1.99H23v14.5H0Z" transform="translate(-23535 -17087.51)"/>
            <rect id="Rectangle_193" data-name="Rectangle 193" class="cls-6" width="23" height="12" transform="translate(-23573 -17087)"/>
            <path id="Path_214" data-name="Path 214" class="cls-6" d="M0-1.059H23v16H0Z" transform="translate(-23495 -17089.941)"/>
            <path id="Path_206" data-name="Path 206" class="cls-6" d="M0-5.732H23V2H0Z" transform="translate(-23611 -17077)"/>
            <rect id="Rectangle_200" data-name="Rectangle 200" class="cls-6" width="23" height="4" transform="translate(-23649 -17079)"/>
            <rect id="Rectangle_675" data-name="Rectangle 675" class="cls-6" width="23" height="1" transform="translate(-23689 -17076)"/>
            <path id="Path_208" data-name="Path 208" class="cls-6" d="M0,3.617H23V27.676H0Z" transform="translate(-23379 -17102.676)"/>
            <rect id="Rectangle_197" data-name="Rectangle 197" class="cls-6" width="23" height="24" transform="translate(-23457 -17099)"/>
            <path id="Path_211" data-name="Path 211" class="cls-6" d="M0-3.27H23v31H0Z" transform="translate(-23264 -17102.73)"/>
            <path id="Path_210" data-name="Path 210" class="cls-6" d="M0-17.07H23v29H0Z" transform="translate(-23302 -17086.93)"/>
            <line id="Line_167" data-name="Line 167" class="cls-2" x2="696.561" transform="translate(-23700 -17257.5)"/>
            <line id="Line_168" data-name="Line 168" class="cls-2" x2="696.561" transform="translate(-23700 -17221.5)"/>
            <rect id="Rectangle_186" data-name="Rectangle 186" class="cls-6" width="23" height="141" transform="translate(-23071 -17216)"/>
            <rect id="Rectangle_676" data-name="Rectangle 676" class="cls-6" width="23" height="132" transform="translate(-23109 -17207)"/>
            <rect id="Rectangle_201" data-name="Rectangle 201" class="cls-7" width="23" height="192" transform="translate(-23032 -17267)"/>
            <rect id="Rectangle_187" data-name="Rectangle 187" class="cls-6" width="23" height="90" transform="translate(-23148 -17165)"/>
            <rect id="Rectangle_188" data-name="Rectangle 188" class="cls-6" width="23" height="75" transform="translate(-23186 -17150)"/>
            <text id="projected" class="cls-8" transform="translate(-23030.5 -17117.5) rotate(-90)"><tspan x="18.714" y="13">projected</tspan></text>
        </g>
    </g>
</svg>

<svg xmlns="http://www.w3.org/2000/svg" viewBox="-12091 -18265 900 400"><defs><style>.cls-1,.cls-8{fill:#fff}.cls-1,.cls-2{stroke:#95989a}.cls-10,.cls-2{fill:none}.cls-3,.cls-5{fill:#95989a}.cls-3,.cls-4{font-size:11px}.cls-3,.cls-4,.cls-5,.cls-8{font-family:Roboto-Regular,Roboto}.cls-4{fill:#2a3052}.cls-5,.cls-8{font-size:12px}.cls-6,.cls-7{fill:#e98024}.cls-7{opacity:.6}.cls-8{letter-spacing:.3em}.cls-9{stroke:none}</style></defs><g id="Group_458" data-name="Group 458" transform="translate(11743 -855)"><g id="Rectangle_184" data-name="Rectangle 184" class="cls-1"><path class="cls-9" d="M0 0h900v400H0z" transform="translate(-23834 -17410)"/><path class="cls-10" d="M.5.5h899v399H.5z" transform="translate(-23834 -17410)"/></g><g id="Group_450" data-name="Group 450"><path id="Line_58" data-name="Line 58" class="cls-2" transform="translate(-23700 -17294.5)" d="M0 0h696.561"/><path id="Line_59" data-name="Line 59" class="cls-2" transform="translate(-23700 -17184.5)" d="M0 0h696.561"/><path id="Line_60" data-name="Line 60" class="cls-2" transform="translate(-23700 -17147.5)" d="M0 0h696.561"/><path id="Line_61" data-name="Line 61" class="cls-2" transform="translate(-23700 -17111.5)" d="M0 0h696.561"/><path id="Line_62" data-name="Line 62" class="cls-2" transform="translate(-23700 -17074.5)" d="M0 0h696.561"/><text id="_120_000" data-name="120,000" class="cls-3" transform="translate(-23724 -17292)"><tspan x="-39.349" y="0">120,000</tspan></text><text id="Number_of_active_clients" data-name="Number of active clients" class="cls-4" transform="translate(-23665 -17322)"><tspan x="0" y="0">Number of active clients</tspan></text><text id="_2007" data-name="2007" class="cls-3" transform="translate(-23419 -17056)"><tspan x="0" y="0">2007</tspan></text><text id="_2003" data-name="2003" class="cls-3" transform="translate(-23573 -17056)"><tspan x="0" y="0">2003</tspan></text><text id="_2011" data-name="2011" class="cls-3" transform="translate(-23265 -17056)"><tspan x="0" y="0">2011</tspan></text><text id="_2001" data-name="2001" class="cls-3" transform="translate(-23650 -17056)"><tspan x="0" y="0">2001</tspan></text><text id="_2009" data-name="2009" class="cls-3" transform="translate(-23342 -17056)"><tspan x="0" y="0">2009</tspan></text><text id="_2005" data-name="2005" class="cls-3" transform="translate(-23496 -17056)"><tspan x="0" y="0">2005</tspan></text><text id="_2013" data-name="2013" class="cls-3" transform="translate(-23187 -17056)"><tspan x="0" y="0">2013</tspan></text><text id="_2000" data-name="2000" class="cls-3" transform="translate(-23689 -17056)"><tspan x="0" y="0">2000</tspan></text><text id="_2008" data-name="2008" class="cls-3" transform="translate(-23380 -17056)"><tspan x="0" y="0">2008</tspan></text><text id="_2004" data-name="2004" class="cls-3" transform="translate(-23535 -17056)"><tspan x="0" y="0">2004</tspan></text><text id="_2012" data-name="2012" class="cls-3" transform="translate(-23226 -17056)"><tspan x="0" y="0">2012</tspan></text><text id="_2002" data-name="2002" class="cls-3" transform="translate(-23612 -17056)"><tspan x="0" y="0">2002</tspan></text><text id="_2010" data-name="2010" class="cls-3" transform="translate(-23303 -17056)"><tspan x="0" y="0">2010</tspan></text><text id="_2006" data-name="2006" class="cls-3" transform="translate(-23457 -17056)"><tspan x="0" y="0">2006</tspan></text><text id="_2014" data-name="2014" class="cls-3" transform="translate(-23149 -17056)"><tspan x="0" y="0">2014</tspan></text><text id="_2015" data-name="2015" class="cls-3" transform="translate(-23110 -17056)"><tspan x="0" y="0">2015</tspan></text><text id="_2017" data-name="2017" class="cls-3" transform="translate(-23033 -17056)"><tspan x="0" y="0">2017</tspan></text><text id="_2016" data-name="2016" class="cls-3" transform="translate(-23072 -17056)"><tspan x="0" y="0">2016</tspan></text><text id="_100_000" data-name="100,000" class="cls-3" transform="translate(-23724 -17255)"><tspan x="-39.354" y="0">100,000</tspan></text><text id="_80_000" data-name="80,000" class="cls-3" transform="translate(-23723 -17219)"><tspan x="-33.156" y="0">80,000</tspan></text><text id="_40_000" data-name="40,000" class="cls-3" transform="translate(-23723 -17145)"><tspan x="-33.156" y="0">40,000</tspan></text><text id="_60_000" data-name="60,000" class="cls-3" transform="translate(-23723 -17182)"><tspan x="-33.156" y="0">60,000</tspan></text><text id="_20_000" data-name="20,000" class="cls-3" transform="translate(-23723 -17109)"><tspan x="-33.156" y="0">20,000</tspan></text><text id="_0" data-name="0" class="cls-5" transform="translate(-23716 -17071)"><tspan x="-6.762" y="0">0</tspan></text><path id="Path_205" data-name="Path 205" class="cls-6" d="M0 0h26v13H0z" transform="translate(-23700 -17333)"/><path id="Path_212" data-name="Path 212" class="cls-6" d="M0-4.592h23v42.2H0z" transform="translate(-23225 -17112.607)"/><path id="Path_209" data-name="Path 209" class="cls-6" d="M0-4.523h23v26.5H0z" transform="translate(-23341 -17096.977)"/><path id="Path_207" data-name="Path 207" class="cls-6" d="M0 4.7h23v18.527H0z" transform="translate(-23417 -17098.227)"/><path id="Path_213" data-name="Path 213" class="cls-6" d="M0-1.99h23v14.5H0z" transform="translate(-23535 -17087.51)"/><path id="Rectangle_193" data-name="Rectangle 193" class="cls-6" transform="translate(-23573 -17087)" d="M0 0h23v12H0z"/><path id="Path_214" data-name="Path 214" class="cls-6" d="M0-1.059h23v16H0z" transform="translate(-23495 -17089.941)"/><path id="Path_206" data-name="Path 206" class="cls-6" d="M0-5.732h23V2H0z" transform="translate(-23611 -17077)"/><path id="Rectangle_200" data-name="Rectangle 200" class="cls-6" transform="translate(-23649 -17079)" d="M0 0h23v4H0z"/><path id="Rectangle_675" data-name="Rectangle 675" class="cls-6" transform="translate(-23689 -17076)" d="M0 0h23v1H0z"/><path id="Path_208" data-name="Path 208" class="cls-6" d="M0 3.617h23v24.059H0z" transform="translate(-23379 -17102.676)"/><path id="Rectangle_197" data-name="Rectangle 197" class="cls-6" transform="translate(-23457 -17099)" d="M0 0h23v24H0z"/><path id="Path_211" data-name="Path 211" class="cls-6" d="M0-3.27h23v31H0z" transform="translate(-23264 -17102.73)"/><path id="Path_210" data-name="Path 210" class="cls-6" d="M0-17.07h23v29H0z" transform="translate(-23302 -17086.93)"/><path id="Line_167" data-name="Line 167" class="cls-2" transform="translate(-23700 -17257.5)" d="M0 0h696.561"/><path id="Line_168" data-name="Line 168" class="cls-2" transform="translate(-23700 -17221.5)" d="M0 0h696.561"/><path id="Rectangle_186" data-name="Rectangle 186" class="cls-6" transform="translate(-23071 -17216)" d="M0 0h23v141H0z"/><path id="Rectangle_676" data-name="Rectangle 676" class="cls-6" transform="translate(-23109 -17207)" d="M0 0h23v132H0z"/><path id="Rectangle_201" data-name="Rectangle 201" class="cls-7" transform="translate(-23032 -17267)" d="M0 0h23v192H0z"/><path id="Rectangle_187" data-name="Rectangle 187" class="cls-6" transform="translate(-23148 -17165)" d="M0 0h23v90H0z"/><path id="Rectangle_188" data-name="Rectangle 188" class="cls-6" transform="translate(-23186 -17150)" d="M0 0h23v75H0z"/><text id="projected" class="cls-8" transform="rotate(-90 -20074 2956.5)"><tspan x="18.714" y="13">projected</tspan></text></g></g></svg>
